X:528
T: DIE GEDANKEN SIND FREEI
N: E1803A
O: Europa, Mitteleuropa, Deutschland, Schlesien; Schweiz; Elsass
R: Freiheits - Lied
M: 3/4
L: 1/8
K: C
G,G, | C3DEC | G,4
E,2 | F,2D,2G,2 | E,2C,2
G,G, | C3DEC | G,4
E,2 | F,2D,2G,2 | E,2C,2
C2 | B,2D2B,2 | C2E2
C2 | B,2D2B,2 | C2E2
C2 | A,3B,CA, | G,4
CE | D2C2B,2 | C4
C2 | B,2D2B,2 | C2E2
C2 | B,2D2B,2 | C2E2
C2 | A,3B,CA, | G,4
CE | D2C2B,2 | C4

